searx/static/themes/simple/img/searxng.svg

<?xml version="1.0" encoding="UTF-8"?>
<!DOCTYPE svg PUBLIC "-//W3C//DTD SVG 1.1//EN" "http://www.w3.org/Graphics/SVG/1.1/DTD/svg11.dtd">
<svg xmlns="http://www.w3.org/2000/svg" version="1.1" width="874px" height="227px" style="shape-rendering:geometricPrecision; text-rendering:geometricPrecision; image-rendering:optimizeQuality; fill-rule:evenodd; clip-rule:evenodd" xmlns:xlink="http://www.w3.org/1999/xlink">
<g><path style="opacity:0.975" fill="#487bff" d="M 444.5,11.5 C 459.833,11.5 475.167,11.5 490.5,11.5C 490.167,44.84 490.5,78.1733 491.5,111.5C 499.183,103.983 507.016,96.65 515,89.5C 518.74,85.6895 521.74,81.3561 524,76.5C 524.711,74.6332 524.211,73.1332 522.5,72C 518.696,70.9495 514.863,70.1162 511,69.5C 510.503,67.1902 510.337,64.8568 510.5,62.5C 527.5,62.5 544.5,62.5 561.5,62.5C 561.808,64.924 561.474,67.2573 560.5,69.5C 553.505,70.3314 547.172,72.8314 541.5,77C 533.5,84.3333 525.5,91.6667 517.5,99C 532.344,120.355 547.678,141.355 563.5,162C 564.167,162.667 564.833,162.667 565.5,162C 559.626,147.501 562.959,135.501 575.5,126C 580.51,122.493 585.843,119.493 591.5,117C 602.62,112.96 613.786,109.127 625,105.5C 625.667,97.5 625.667,89.5 625,81.5C 623.193,75.6928 619.36,71.8595 613.5,70C 608.167,69.3333 602.833,69.3333 597.5,70C 594.751,71.1227 592.251,72.6227 590,74.5C 589.333,75.5 589.333,76.5 590,77.5C 593.805,81.7785 595.972,86.7785 596.5,92.5C 596.317,98.7011 593.317,102.868 587.5,105C 574.637,106.819 567.637,101.152 566.5,88C 567.968,76.1941 574.301,68.1941 585.5,64C 594.302,60.3065 603.468,58.8065 613,59.5C 625.005,58.5254 636.171,61.0254 646.5,67C 653.059,72.2836 656.893,79.1169 658,87.5C 658.333,109.5 658.667,131.5 659,153.5C 661.144,158.386 663.977,158.719 667.5,154.5C 669.705,155.871 671.372,157.704 672.5,160C 663.634,172.846 651.634,177.179 636.5,173C 631.555,170.054 628.055,165.888 626,160.5C 613.601,172.63 598.768,177.13 581.5,174C 577.286,173.226 573.619,171.393 570.5,168.5C 569.614,169.325 569.281,170.325 569.5,171.5C 550.833,171.5 532.167,171.5 513.5,171.5C 513.337,169.143 513.503,166.81 514,164.5C 516.461,163.782 518.961,163.115 521.5,162.5C 522.631,160.926 522.798,159.259 522,157.5C 513.388,144.555 504.388,131.889 495,119.5C 493.667,120.833 492.333,122.167 491,123.5C 490.333,134.167 490.333,144.833 491,155.5C 492.984,161.146 496.984,164.146 503,164.5C 503.497,166.81 503.663,169.143 503.5,171.5C 483.833,171.5 464.167,171.5 444.5,171.5C 444.5,168.833 444.5,166.167 444.5,163.5C 451.769,164.065 455.936,160.732 457,153.5C 457.667,112.5 457.667,71.5 457,30.5C 455.761,23.4238 451.594,19.7571 444.5,19.5C 444.5,16.8333 444.5,14.1667 444.5,11.5 Z M 623.5,115.5 C 624.829,120.624 625.495,126.124 625.5,132C 628.587,149.579 621.253,157.579 603.5,156C 597.326,149.559 595.826,142.059 599,133.5C 601.45,128.716 604.95,124.883 609.5,122C 614.137,119.511 618.804,117.344 623.5,115.5 Z"/></g>
<g><path style="opacity:0.988" fill="#487bff" d="M 247.5,23.5 C 249.5,23.5 251.5,23.5 253.5,23.5C 253.5,36.5 253.5,49.5 253.5,62.5C 260.833,62.5 268.167,62.5 275.5,62.5C 275.5,66.1667 275.5,69.8333 275.5,73.5C 268.167,73.5 260.833,73.5 253.5,73.5C 253.057,99.2044 253.557,124.871 255,150.5C 258.1,155.978 262.6,157.478 268.5,155C 271.693,152.083 274.526,148.916 277,145.5C 279.036,145.954 280.87,146.787 282.5,148C 271.54,173.49 253.54,180.49 228.5,169C 224.577,165.323 222.077,160.823 221,155.5C 220.5,128.169 220.333,100.835 220.5,73.5C 216.167,73.5 211.833,73.5 207.5,73.5C 207.337,71.1432 207.503,68.8098 208,66.5C 225.221,55.7832 238.388,41.4499 247.5,23.5 Z"/></g>
<g><path style="opacity:0.988" fill="#487bff" d="M 416.5,23.5 C 418.5,23.5 420.5,23.5 422.5,23.5C 422.5,36.5 422.5,49.5 422.5,62.5C 429.833,62.5 437.167,62.5 444.5,62.5C 444.5,66.1667 444.5,69.8333 444.5,73.5C 437.167,73.5 429.833,73.5 422.5,73.5C 422.057,99.2044 422.557,124.871 424,150.5C 427.1,155.978 431.6,157.478 437.5,155C 440.693,152.083 443.526,148.916 446,145.5C 448.036,145.954 449.87,146.787 451.5,148C 440.54,173.49 422.54,180.49 397.5,169C 393.577,165.323 391.077,160.823 390,155.5C 389.5,128.169 389.333,100.835 389.5,73.5C 385.167,73.5 380.833,73.5 376.5,73.5C 376.337,71.1432 376.503,68.8098 377,66.5C 394.221,55.7832 407.388,41.4499 416.5,23.5 Z"/></g>
<g><path style="opacity:0.976" fill="#487bff" d="M 43.5,59.5 C 56.5158,58.4004 69.1825,59.9004 81.5,64C 91.828,64.4998 102.161,64.6665 112.5,64.5C 112.5,68.1667 112.5,71.8333 112.5,75.5C 107.125,75.1718 101.792,75.5052 96.5,76.5C 102.044,86.4567 103.878,97.1234 102,108.5C 97.5928,121.902 88.4261,130.069 74.5,133C 64.876,134.158 55.2093,134.824 45.5,135C 37.9969,137.851 35.1635,143.017 37,150.5C 37.9025,151.701 39.0692,152.535 40.5,153C 55.1352,154.184 69.8018,154.851 84.5,155C 106.283,158.438 115.116,170.938 111,192.5C 108.423,200.413 103.589,206.58 96.5,211C 82.4595,217.817 67.6262,220.65 52,219.5C 38.5935,220.516 25.7602,218.349 13.5,213C 5.08975,205.966 3.25641,197.466 8,187.5C 11.9676,184.098 16.4676,181.598 21.5,180C 8.05466,172.661 4.88799,162.161 12,148.5C 17.987,140.924 25.487,135.424 34.5,132C 8.47662,121.262 1.30995,103.095 13,77.5C 21.1091,67.8659 31.2758,61.8659 43.5,59.5 Z M 49.5,69.5 C 58.844,67.2514 65.0106,70.5848 68,79.5C 69.5413,90.1159 69.8746,100.783 69,111.5C 66.3884,123.559 59.2217,127.392 47.5,123C 44.7692,120.374 42.9358,117.207 42,113.5C 39.7265,100.74 40.0598,88.0732 43,75.5C 44.4936,72.6865 46.6603,70.6865 49.5,69.5 Z M 35.5,183.5 C 51.7898,184.117 68.1231,184.95 84.5,186C 90.4694,188.103 92.6361,192.27 91,198.5C 89.8783,200.624 88.3783,202.457 86.5,204C 81.7684,206.466 76.7684,208.133 71.5,209C 59.7016,210.131 48.0349,209.465 36.5,207C 31.1858,205.347 27.5192,202.014 25.5,197C 27.1318,191.207 30.4651,186.707 35.5,183.5 Z"/></g>
<g><path style="opacity:0.972" fill="#487bff" d="M 144.5,59.5 C 155.549,59.1499 166.549,59.6499 177.5,61C 191.791,64.2902 200.291,73.1235 203,87.5C 203.333,109.5 203.667,131.5 204,153.5C 206.144,158.386 208.977,158.719 212.5,154.5C 214.705,155.871 216.372,157.704 217.5,160C 207.954,173.768 195.288,177.768 179.5,172C 175.813,168.79 172.979,164.956 171,160.5C 158.601,172.63 143.768,177.13 126.5,174C 110.367,168.468 104.534,157.301 109,140.5C 115.073,129.097 124.24,121.264 136.5,117C 147.62,112.96 158.786,109.127 170,105.5C 170.667,97.5 170.667,89.5 170,81.5C 168.193,75.6928 164.36,71.8595 158.5,70C 153.167,69.3333 147.833,69.3333 142.5,70C 139.751,71.1227 137.251,72.6227 135,74.5C 134.333,75.5 134.333,76.5 135,77.5C 140.02,82.8914 142.02,89.2247 141,96.5C 136.936,104.61 130.436,107.443 121.5,105C 115.095,101.197 111.762,95.5305 111.5,88C 112.28,78.7674 116.614,71.7674 124.5,67C 131.021,63.7752 137.688,61.2752 144.5,59.5 Z M 168.5,115.5 C 169.829,120.624 170.495,126.124 170.5,132C 173.587,149.579 166.253,157.579 148.5,156C 142.326,149.559 140.826,142.059 144,133.5C 146.45,128.716 149.95,124.883 154.5,122C 159.137,119.511 163.804,117.344 168.5,115.5 Z"/></g>
<g><path style="opacity:0.975" fill="#487bff" d="M 318.5,59.5 C 352.169,56.2432 373.336,70.9099 382,103.5C 386.61,127.92 379.777,148.42 361.5,165C 348.504,173.867 334.171,176.867 318.5,174C 293.388,166.545 279.555,149.712 277,123.5C 274.586,91.2675 288.42,69.9342 318.5,59.5 Z M 324.5,69.5 C 335.374,67.5513 342.208,71.8846 345,82.5C 345.945,86.1141 346.612,89.7808 347,93.5C 348.104,111.916 347.437,130.249 345,148.5C 343.57,160.94 336.736,166.107 324.5,164C 319.223,160.629 316.057,155.796 315,149.5C 312.092,128.216 311.759,106.883 314,85.5C 315.007,78.3623 318.507,73.029 324.5,69.5 Z"/></g>
<g><path style="opacity:0.972" fill="#487bff" d="M 707.5,59.5 C 715.174,59.3336 722.841,59.5003 730.5,60C 740.133,61.5606 747.966,66.0606 754,73.5C 759.581,83.023 758.415,91.523 750.5,99C 742.527,102.167 735.694,100.667 730,94.5C 728.137,87.0169 726.97,79.5169 726.5,72C 718.182,67.6541 711.015,69.1541 705,76.5C 702.248,81.8382 700.582,87.5049 700,93.5C 699.333,102.833 699.333,112.167 700,121.5C 701.405,135.155 707.572,145.988 718.5,154C 732.961,159.625 744.961,156.292 754.5,144C 755.549,143.508 756.549,143.674 757.5,144.5C 761.102,134.728 767.436,127.228 776.5,122C 790.304,115.287 804.637,109.954 819.5,106C 820.648,97.9124 820.815,89.7457 820,81.5C 818.193,75.6928 814.36,71.8595 808.5,70C 803.167,69.3333 797.833,69.3333 792.5,70C 789.751,71.1227 787.251,72.6227 785,74.5C 784.333,75.5 784.333,76.5 785,77.5C 788.805,81.7785 790.972,86.7785 791.5,92.5C 791.317,98.7011 788.317,102.868 782.5,105C 769.637,106.819 762.637,101.152 761.5,88C 762.968,76.1941 769.301,68.1941 780.5,64C 785.054,62.2595 789.721,60.9261 794.5,60C 803.5,59.3333 812.5,59.3333 821.5,60C 838.889,61.3948 849.389,70.5614 853,87.5C 853.333,109.5 853.667,131.5 854,153.5C 854.637,155.303 855.803,156.636 857.5,157.5C 859.497,156.253 861.497,155.419 863.5,155C 866.102,156.554 867.269,158.72 867,161.5C 857.057,174.226 844.557,177.726 829.5,172C 825.813,168.79 822.979,164.956 821,160.5C 805.762,175.011 788.262,178.511 768.5,171C 762.576,166.657 759.076,160.824 758,153.5C 745.684,170.893 728.851,177.726 707.5,174C 689.723,169.222 677.223,158.388 670,141.5C 661.714,116.553 665.714,93.886 682,73.5C 689.337,66.5842 697.837,61.9175 707.5,59.5 Z M 818.5,115.5 C 819.829,120.624 820.495,126.124 820.5,132C 823.587,149.579 816.253,157.579 798.5,156C 792.326,149.559 790.826,142.059 794,133.5C 796.45,128.716 799.95,124.883 804.5,122C 809.137,119.511 813.804,117.344 818.5,115.5 Z"/></g>
</svg>

<svg width="874" height="227" shape-rendering="geometricPrecision" text-rendering="geometricPrecision" image-rendering="optimizeQuality" fill-rule="evenodd" clip-rule="evenodd"><path fill="#487bff" d="M444.5 11.5h46a2501 2501 0 0 0 1 100 729.387 729.387 0 0 1 23.5-22 46.33 46.33 0 0 0 9-13c.711-1.867.211-3.367-1.5-4.5a105.745 105.745 0 0 0-11.5-2.5 24.935 24.935 0 0 1-.5-7h51a13.115 13.115 0 0 1-1 7c-6.995.831-13.328 3.331-19 7.5l-24 22a1678.558 1678.558 0 0 0 46 63c.667.667 1.333.667 2 0-5.874-14.499-2.541-26.499 10-36a93.76 93.76 0 0 1 16-9 993.006 993.006 0 0 1 33.5-11.5c.667-8 .667-16 0-24-1.807-5.807-5.64-9.64-11.5-11.5a64.247 64.247 0 0 0-16 0 28.4 28.4 0 0 0-7.5 4.5c-.667 1-.667 2 0 3 3.805 4.278 5.972 9.278 6.5 15-.183 6.201-3.183 10.368-9 12.5-12.863 1.819-19.863-3.848-21-17 1.468-11.806 7.801-19.806 19-24 8.802-3.694 17.968-5.194 27.5-4.5 12.005-.975 23.171 1.525 33.5 7.5 6.559 5.284 10.393 12.117 11.5 20.5l1 66c2.144 4.886 4.977 5.219 8.5 1 2.205 1.371 3.872 3.204 5 5.5-8.866 12.846-20.866 17.179-36 13-4.945-2.946-8.445-7.112-10.5-12.5-12.399 12.13-27.232 16.63-44.5 13.5-4.214-.774-7.881-2.607-11-5.5-.886.825-1.219 1.825-1 3h-56c-.163-2.357.003-4.69.5-7a167.912 167.912 0 0 1 7.5-2c1.131-1.574 1.298-3.241.5-5a758.946 758.946 0 0 0-27-38l-4 4a256.122 256.122 0 0 0 0 32c1.984 5.646 5.984 8.646 12 9 .497 2.31.663 4.643.5 7h-59v-8c7.269.565 11.436-2.768 12.5-10 .667-41 .667-82 0-123-1.239-7.076-5.406-10.743-12.5-11v-8Zm179 104c1.329 5.124 1.995 10.624 2 16.5 3.087 17.579-4.247 25.579-22 24-6.174-6.441-7.674-13.941-4.5-22.5 2.45-4.784 5.95-8.617 10.5-11.5a130.32 130.32 0 0 1 14-6.5Z" opacity=".975"/><path fill="#487bff" d="M247.5 23.5h6v39h22v11h-22c-.443 25.704.057 51.371 1.5 77 3.1 5.478 7.6 6.978 13.5 4.5a62.524 62.524 0 0 0 8.5-9.5 14.325 14.325 0 0 1 5.5 2.5c-10.96 25.49-28.96 32.49-54 21-3.923-3.677-6.423-8.177-7.5-13.5a3360.51 3360.51 0 0 1-.5-82h-13c-.163-2.357.003-4.69.5-7 17.221-10.717 30.388-25.05 39.5-43ZM416.5 23.5h6v39h22v11h-22c-.443 25.704.057 51.371 1.5 77 3.1 5.478 7.6 6.978 13.5 4.5a62.524 62.524 0 0 0 8.5-9.5 14.325 14.325 0 0 1 5.5 2.5c-10.96 25.49-28.96 32.49-54 21-3.923-3.677-6.423-8.177-7.5-13.5a3360.51 3360.51 0 0 1-.5-82h-13c-.163-2.357.003-4.69.5-7 17.221-10.717 30.388-25.05 39.5-43Z" opacity=".988"/><path fill="#487bff" d="M43.5 59.5c13.016-1.1 25.683.4 38 4.5 10.328.5 20.661.666 31 .5v11a64.873 64.873 0 0 0-16 1c5.544 9.957 7.378 20.623 5.5 32-4.407 13.402-13.574 21.569-27.5 24.5a285.984 285.984 0 0 1-29 2c-7.503 2.851-10.337 8.017-8.5 15.5a6.977 6.977 0 0 0 3.5 2.5 623.912 623.912 0 0 0 44 2c21.783 3.438 30.616 15.938 26.5 37.5-2.577 7.913-7.411 14.08-14.5 18.5-14.04 6.817-28.874 9.65-44.5 8.5-13.407 1.016-26.24-1.151-38.5-6.5-8.41-7.034-10.244-15.534-5.5-25.5 3.968-3.402 8.468-5.902 13.5-7.5-13.445-7.339-16.612-17.839-9.5-31.5 5.987-7.576 13.487-13.076 22.5-16.5C8.477 121.262 1.31 103.095 13 77.5c8.11-9.634 18.276-15.634 30.5-18Zm6 10c9.344-2.249 15.51 1.085 18.5 10a141.762 141.762 0 0 1 1 32c-2.612 12.059-9.778 15.892-21.5 11.5-2.73-2.626-4.564-5.793-5.5-9.5-2.273-12.76-1.94-25.427 1-38 1.494-2.814 3.66-4.814 6.5-6Zm-14 114c16.29.617 32.623 1.45 49 2.5 5.97 2.103 8.136 6.27 6.5 12.5a17.833 17.833 0 0 1-4.5 5.5 49.723 49.723 0 0 1-15 5c-11.798 1.131-23.465.465-35-2-5.314-1.653-8.98-4.986-11-10 1.632-5.793 4.965-10.293 10-13.5Z" opacity=".976"/><path fill="#487bff" d="M144.5 59.5c11.049-.35 22.049.15 33 1.5 14.291 3.29 22.791 12.124 25.5 26.5l1 66c2.144 4.886 4.977 5.219 8.5 1 2.205 1.371 3.872 3.204 5 5.5-9.546 13.768-22.212 17.768-38 12a32.64 32.64 0 0 1-8.5-11.5c-12.399 12.13-27.232 16.63-44.5 13.5-16.133-5.532-21.966-16.699-17.5-33.5 6.073-11.403 15.24-19.236 27.5-23.5a993.006 993.006 0 0 1 33.5-11.5c.667-8 .667-16 0-24-1.807-5.807-5.64-9.64-11.5-11.5a64.247 64.247 0 0 0-16 0 28.4 28.4 0 0 0-7.5 4.5c-.667 1-.667 2 0 3 5.02 5.391 7.02 11.725 6 19-4.064 8.11-10.564 10.943-19.5 8.5-6.405-3.803-9.738-9.47-10-17 .78-9.233 5.114-16.233 13-21 6.521-3.225 13.188-5.725 20-7.5Zm24 56c1.329 5.124 1.995 10.624 2 16.5 3.087 17.579-4.247 25.579-22 24-6.174-6.441-7.674-13.941-4.5-22.5 2.45-4.784 5.95-8.617 10.5-11.5a130.32 130.32 0 0 1 14-6.5Z" opacity=".972"/><path fill="#487bff" d="M318.5 59.5c33.669-3.257 54.836 11.41 63.5 44 4.61 24.42-2.223 44.92-20.5 61.5-12.996 8.867-27.329 11.867-43 9-25.112-7.455-38.945-24.288-41.5-50.5-2.414-32.233 11.42-53.566 41.5-64Zm6 10c10.874-1.949 17.708 2.385 20.5 13a73.616 73.616 0 0 1 2 11 285.506 285.506 0 0 1-2 55c-1.43 12.44-8.264 17.607-20.5 15.5-5.277-3.371-8.443-8.204-9.5-14.5a266.148 266.148 0 0 1-1-64c1.007-7.138 4.507-12.471 10.5-16Z" opacity=".975"/><path fill="#487bff" d="M707.5 59.5c7.674-.166 15.341 0 23 .5 9.633 1.56 17.466 6.06 23.5 13.5 5.581 9.523 4.415 18.023-3.5 25.5-7.973 3.167-14.806 1.667-20.5-4.5-1.863-7.483-3.03-14.983-3.5-22.5-8.318-4.346-15.485-2.846-21.5 4.5a46.591 46.591 0 0 0-5 17 196.152 196.152 0 0 0 0 28c1.405 13.655 7.572 24.488 18.5 32.5 14.461 5.625 26.461 2.292 36-10 1.049-.492 2.049-.326 3 .5 3.602-9.772 9.936-17.272 19-22.5a237.996 237.996 0 0 1 43-16 102.19 102.19 0 0 0 .5-24.5c-1.807-5.807-5.64-9.64-11.5-11.5a64.247 64.247 0 0 0-16 0 28.4 28.4 0 0 0-7.5 4.5c-.667 1-.667 2 0 3 3.805 4.278 5.972 9.278 6.5 15-.183 6.201-3.183 10.368-9 12.5-12.863 1.819-19.863-3.848-21-17 1.468-11.806 7.801-19.806 19-24a83.8 83.8 0 0 1 14-4c9-.667 18-.667 27 0 17.389 1.395 27.889 10.561 31.5 27.5l1 66c.637 1.803 1.803 3.136 3.5 4 1.997-1.247 3.997-2.081 6-2.5 2.602 1.554 3.769 3.72 3.5 6.5-9.943 12.726-22.443 16.226-37.5 10.5a32.64 32.64 0 0 1-8.5-11.5c-15.238 14.511-32.738 18.011-52.5 10.5-5.924-4.343-9.424-10.176-10.5-17.5-12.316 17.393-29.149 24.226-50.5 20.5-17.777-4.778-30.277-15.612-37.5-32.5-8.286-24.947-4.286-47.614 12-68 7.337-6.916 15.837-11.583 25.5-14Zm111 56c1.329 5.124 1.995 10.624 2 16.5 3.087 17.579-4.247 25.579-22 24-6.174-6.441-7.674-13.941-4.5-22.5 2.45-4.784 5.95-8.617 10.5-11.5a130.32 130.32 0 0 1 14-6.5Z" opacity=".972"/></svg>
